X: 69
T: 5th Horseman Of The Apocalypse
R: reel
M: 4/4
K: Eminor
|:c'gfc' gfc'g|fc'gf bgfb|gfbg fbgf|^agfa gfag|
f^agf e^def|g^abc' gfbg|f^agf ^dfge|1 e4 a2b2:|2 e4 e2^d2||
|:e^dBA GEGd|e2e2 e^dBA|GEG^d e2e2|eBAd AGcG|FAe^d BAFE|
FGFE E4|1 BAGE FGFE|E6 ^d2:|2 e^dBA GEGd|e2e2 a2b2||

